Dominus_Dark_Funeral/scalable/apps/skype.svg

<?xml version="1.0" encoding="UTF-8" standalone="no"?><svg xmlns:dc="http://purl.org/dc/elements/1.1/" xmlns:cc="http://creativecommons.org/ns#" xmlns:rdf="http://www.w3.org/1999/02/22-rdf-syntax-ns#" xmlns="http://www.w3.org/2000/svg" xmlns:xlink="http://www.w3.org/1999/xlink" width="48" height="48" viewBox="0 0 12.7 12.7"><metadata><rdf:RDF><cc:Work><dc:format>image/svg+xml</dc:format><dc:type rdf:resource="http://purl.org/dc/dcmitype/StillImage"/><dc:title/></cc:Work></rdf:RDF></metadata><defs><linearGradient id="d"><stop offset="0"/><stop offset="1" stop-opacity=".06"/></linearGradient><linearGradient id="b"><stop offset="0" stop-color="#216778"/><stop offset=".72" stop-color="#00aff0"/><stop offset="1" stop-color="#5fbcd3"/></linearGradient><linearGradient id="a"><stop offset="0"/><stop offset="1" stop-opacity="0"/></linearGradient><linearGradient xlink:href="#b" id="c" gradientUnits="userSpaceOnUse" gradientTransform="translate(18.2 .9) scale(.16536)" x1="46" y1="3" x2="46" y2="47"/><linearGradient xlink:href="#b" id="e" x1="1.14" y1="2.09" x2="10.79" y2="8.06" gradientUnits="userSpaceOnUse"/><linearGradient xlink:href="#d" id="f" gradientUnits="userSpaceOnUse" x1="2.62" y1="3.07" x2="12.91" y2="9.84"/></defs><path d="M6.35.1C4.81.1 3.57.38 2.66.96A3.67 3.67 0 0 0 1 4.22c0 1.91 1.54 4.47 2.01 5.2.54.85 1.13 1.61 1.65 2.16.68.7 1.21 1.03 1.69 1.03s1.01-.33 1.69-1.03a15.2 15.2 0 0 0 1.65-2.15c.47-.74 2-3.3 2-5.21 0-1.42-.57-2.54-1.65-3.25A6.75 6.75 0 0 0 6.35.1z" fill="url(#e)"/><path d="M8 11.62l.04-.04a15.2 15.2 0 0 0 1.65-2.15c.23-.37.73-1.2 1.18-2.17.16-.36.3-.75.43-1.14l-3.01-3-.5.39-1.32-.74-1.66.57-.64 1.84 2.78 2.8-1.43-.11-1.36-.1z" fill="url(#f)" opacity=".65"/><path d="M6.26 2.42c-1.53 0-2.43.69-2.43 1.87 0 1.3 1.68 1.62 2.72 1.75.96.27 1 .42 1 .85 0 .53-.68.73-1.13.73-1.37 0-1.26-1-2-1-.36 0-.54.14-.54.6 0 .48.96 1.38 2.49 1.38 1.53 0 2.5-.58 2.5-1.76 0-1.21-1-1.59-2.32-1.94-.9-.21-1.4-.38-1.4-.8 0-.53.57-.72 1.03-.72 1.36 0 1.06.87 1.8.87.37 0 .6-.08.6-.55 0-.47-.78-1.28-2.32-1.28z" fill="#fff" fill-rule="evenodd"/><path d="M6.35.1C4.81.1 3.57.38 2.66.96A3.67 3.67 0 0 0 1 4.22c0 1.91 1.54 4.47 2.01 5.2.54.85 1.13 1.61 1.65 2.16.68.7 1.21 1.03 1.69 1.03s1.01-.33 1.69-1.03a15.2 15.2 0 0 0 1.65-2.15c.47-.74 2-3.3 2-5.21 0-1.42-.57-2.54-1.65-3.25A6.75 6.75 0 0 0 6.35.1zm0 .03C6.91.15 7.44.2 7.9.31a5.82 5.82 0 0 1 1.6.66 3.65 3.65 0 0 1 1.24 1.36c.14.27.25.57.32.88a4.61 4.61 0 0 1-.14 2.53c-.15.52-.36 1.04-.58 1.52-.44.97-.95 1.8-1.18 2.17a15.2 15.2 0 0 1-1.65 2.15 4.9 4.9 0 0 1-.92.78.96.96 0 0 1-.24.1.96.96 0 0 1-.24-.1 4.76 4.76 0 0 1-.92-.78 14.41 14.41 0 0 1-1.65-2.15 19.2 19.2 0 0 1-1.18-2.17c-.22-.48-.43-1-.58-1.52a4.6 4.6 0 0 1-.14-2.52 3.73 3.73 0 0 1 .84-1.64 3.65 3.65 0 0 1 1.45-1A6.83 6.83 0 0 1 6.35.13z" opacity=".2"/></svg>

<?xml version="1.0" encoding="UTF-8" standalone="no"?>
<svg
   xmlns:dc="http://purl.org/dc/elements/1.1/"
   xmlns:cc="http://creativecommons.org/ns#"
   xmlns:rdf="http://www.w3.org/1999/02/22-rdf-syntax-ns#"
   xmlns:svg="http://www.w3.org/2000/svg"
   xmlns="http://www.w3.org/2000/svg"
   xmlns:xlink="http://www.w3.org/1999/xlink"
   xmlns:sodipodi="http://sodipodi.sourceforge.net/DTD/sodipodi-0.dtd"
   xmlns:inkscape="http://www.inkscape.org/namespaces/inkscape"
   width="48"
   height="48"
   viewBox="0 0 12.7 12.7"
   version="1.1"
   id="svg34"
   sodipodi:docname="skype.svg"
   inkscape:version="0.92.4 (5da689c313, 2019-01-14)">
  <sodipodi:namedview
     pagecolor="#ffffff"
     bordercolor="#666666"
     borderopacity="1"
     objecttolerance="10"
     gridtolerance="10"
     guidetolerance="10"
     inkscape:pageopacity="0"
     inkscape:pageshadow="2"
     inkscape:window-width="1112"
     inkscape:window-height="480"
     id="namedview36"
     showgrid="false"
     inkscape:zoom="4.9166667"
     inkscape:cx="2.1355932"
     inkscape:cy="24"
     inkscape:window-x="0"
     inkscape:window-y="25"
     inkscape:window-maximized="0"
     inkscape:current-layer="svg34" />
  <metadata
     id="metadata2">
    <rdf:RDF>
      <cc:Work>
        <dc:format>image/svg+xml</dc:format>
        <dc:type
           rdf:resource="http://purl.org/dc/dcmitype/StillImage" />
        <dc:title></dc:title>
      </cc:Work>
    </rdf:RDF>
  </metadata>
  <defs
     id="defs24">
    <linearGradient
       id="d">
      <stop
         offset="0"
         id="stop4" />
      <stop
         offset="1"
         stop-opacity=".06"
         id="stop6" />
    </linearGradient>
    <linearGradient
       id="b">
      <stop
         offset="0"
         stop-color="#216778"
         id="stop9" />
      <stop
         offset=".72"
         stop-color="#00aff0"
         id="stop11" />
      <stop
         offset="1"
         stop-color="#5fbcd3"
         id="stop13" />
    </linearGradient>
    <linearGradient
       id="a">
      <stop
         offset="0"
         id="stop16" />
      <stop
         offset="1"
         stop-opacity="0"
         id="stop18" />
    </linearGradient>
    <linearGradient
       xlink:href="#b"
       id="c"
       gradientUnits="userSpaceOnUse"
       gradientTransform="translate(18.2 .9) scale(.16536)"
       x1="46"
       y1="3"
       x2="46"
       y2="47" />
    <linearGradient
       xlink:href="#b"
       id="e"
       x1="1.14"
       y1="2.09"
       x2="10.79"
       y2="8.06"
       gradientUnits="userSpaceOnUse" />
    <linearGradient
       xlink:href="#d"
       id="f"
       gradientUnits="userSpaceOnUse"
       x1="2.62"
       y1="3.07"
       x2="12.91"
       y2="9.84" />
  </defs>
  <path
     d="M 6.35,0.1 C 4.81,0.1 3.57,0.38 2.66,0.96 A 3.67,3.67 0 0 0 1,4.22 c 0,1.91 1.54,4.47 2.01,5.2 0.54,0.85 1.13,1.61 1.65,2.16 0.68,0.7 1.21,1.03 1.69,1.03 0.48,0 1.01,-0.33 1.69,-1.03 A 15.2,15.2 0 0 0 9.69,9.43 c 0.47,-0.74 2,-3.3 2,-5.21 0,-1.42 -0.57,-2.54 -1.65,-3.25 A 6.75,6.75 0 0 0 6.35,0.1 Z"
     id="path26"
     style="fill:url(#e)"
     inkscape:connector-curvature="0" />
  <path
     d="M 8,11.62 8.04,11.58 A 15.2,15.2 0 0 0 9.69,9.43 C 9.92,9.06 10.42,8.23 10.87,7.26 11.03,6.9 11.17,6.51 11.3,6.12 L 8.29,3.12 7.79,3.51 6.47,2.77 4.81,3.34 4.17,5.18 6.95,7.98 5.52,7.87 4.16,7.77 Z"
     id="path28"
     style="opacity:0.65;fill:url(#f)"
     inkscape:connector-curvature="0" />
  <path
     d="m 6.26,2.42 c -1.53,0 -2.43,0.69 -2.43,1.87 0,1.3 1.68,1.62 2.72,1.75 0.96,0.27 1,0.42 1,0.85 0,0.53 -0.68,0.73 -1.13,0.73 -1.37,0 -1.26,-1 -2,-1 -0.36,0 -0.54,0.14 -0.54,0.6 0,0.48 0.96,1.38 2.49,1.38 1.53,0 2.5,-0.58 2.5,-1.76 0,-1.21 -1,-1.59 -2.32,-1.94 -0.9,-0.21 -1.4,-0.38 -1.4,-0.8 0,-0.53 0.57,-0.72 1.03,-0.72 1.36,0 1.06,0.87 1.8,0.87 0.37,0 0.6,-0.08 0.6,-0.55 C 8.58,3.23 7.8,2.42 6.26,2.42 Z"
     id="path30"
     inkscape:connector-curvature="0"
     style="fill:#ffffff;fill-rule:evenodd" />
  <path
     d="M 6.35,0.1 C 4.81,0.1 3.57,0.38 2.66,0.96 A 3.67,3.67 0 0 0 1,4.22 c 0,1.91 1.54,4.47 2.01,5.2 0.54,0.85 1.13,1.61 1.65,2.16 0.68,0.7 1.21,1.03 1.69,1.03 0.48,0 1.01,-0.33 1.69,-1.03 A 15.2,15.2 0 0 0 9.69,9.43 c 0.47,-0.74 2,-3.3 2,-5.21 0,-1.42 -0.57,-2.54 -1.65,-3.25 A 6.75,6.75 0 0 0 6.35,0.1 Z m 0,0.03 C 6.91,0.15 7.44,0.2 7.9,0.31 a 5.82,5.82 0 0 1 1.6,0.66 3.65,3.65 0 0 1 1.24,1.36 c 0.14,0.27 0.25,0.57 0.32,0.88 A 4.61,4.61 0 0 1 10.92,5.74 C 10.77,6.26 10.56,6.78 10.34,7.26 9.9,8.23 9.39,9.06 9.16,9.43 A 15.2,15.2 0 0 1 7.51,11.58 4.9,4.9 0 0 1 6.59,12.36 0.96,0.96 0 0 1 6.35,12.46 0.96,0.96 0 0 1 6.11,12.36 4.76,4.76 0 0 1 5.19,11.58 14.41,14.41 0 0 1 3.54,9.43 19.2,19.2 0 0 1 2.36,7.26 C 2.14,6.78 1.93,6.26 1.78,5.74 A 4.6,4.6 0 0 1 1.64,3.22 3.73,3.73 0 0 1 2.48,1.58 3.65,3.65 0 0 1 3.93,0.58 6.83,6.83 0 0 1 6.35,0.13 Z"
     id="path32"
     inkscape:connector-curvature="0"
     style="opacity:0.2" />
</svg>
